!!!!SEGMENT: Wil2056-Salve_crux_sancta.krn
!!!id: Wil2056
!!!AGN: Motet
!!!SCT: Zenck (1950)
!!!voices: 4
!!!COM: Adrian Willaert
!!!OTL: Salve, crux sancta
**kern	**kern	**kern	**kern
*part4	*part3	*part2	*part1
*staff4	*staff3	*staff2	*staff1
*I"Bassus	*I"Tenor	*I"Altus	*I"Superius
*I'B	*I'T	*I'A	*I'S
*clefF4	*clefGv2	*clefGv2	*clefG2
*k[]	*k[]	*k[]	*k[]
*C:	*C:	*C:	*C:
*M2/1	*M2/1	*M2/1	*M2/1
*met(C|)	*met(C|)	*met(C|)	*met(C|)
!!section: Prima pars: Salve, crux sancta
!!!OMD: Prima pars: Salve, crux sancta
=1	=1	=1	=1
0r	0r	1r	1d
.	.	1G	1g
=2	=2	=2	=2
0r	0r	1.c	1g
.	.	.	1a
.	.	2d	.
=3	=3	=3	=3
0r	0r	1e	2g
.	.	.	1cc
.	.	2d	.
.	.	[2g	2b
=4	=4	=4	=4
0r	1D	2g]	1a
.	.	2f	.
.	1G	2e	2.g
.	.	[2d	.
.	.	.	4a
=5	=5	=5	=5
0r	1G	2d]	1b
.	.	4c	.
.	.	4B	.
.	1A	2.c	2e
.	.	.	2cc
.	.	4d	.
=6	=6	=6	=6
1r	2G	1e	2b
.	2c	.	2.g
1GG	2B	2r	.
.	.	.	2a
.	[2d	2g	.
.	.	.	4b
=7	=7	=7	=7
1D	4d]	2f	2a
.	4c	.	.
.	2B	2.d	1g
1D	1A	.	.
.	.	4c	.
.	.	2d	2f#i
=8	=8	=8	=8
1E	1G	2B	1g
.	.	2.c	.
2C	[1c	.	1r
.	.	4B	.
[2F	.	4A	.
.	.	4G	.
=9	=9	=9	=9
2F]	1c]	2A	2r
2E	.	2G	1g
1D	1A	1d	.
.	.	.	2f
=10	=10	=10	=10
1C	1c	1G	1e
2.G	2B	2r	1d
.	[2B	[2g	.
4F	.	.	.
=11	=11	=11	=11
2G	2B]	2g]	2r
2C	2G	2e	1cc
1F	1A	1f	.
.	.	.	2a
=12	=12	=12	=12
1C	0G	1e	1cc
2r	.	2.d	2b
[2G	.	.	[2b
.	.	4c	.
=13	=13	=13	=13
2G]	2r	2d	2b]
2E	1c	2e	2g
1F	.	4A	1a
.	.	4B	.
.	2A	4c	.
.	.	4d	.
=14	=14	=14	=14
1C	1c	4e	0g
.	.	4f	.
.	.	2.e	.
2.G	1B	.	.
.	.	4d	.
.	.	[2d	.
4F	.	.	.
=15	=15	=15	=15
2E	1G	2d]	2r
2E	.	2c#i	1g
1D	1A	1d	.
.	.	.	2f
=16	=16	=16	=16
1GG	1G	2r	1b-i
.	.	2d	.
[1D	1F	2d	2.a
.	.	[2A	.
.	.	.	4g
=17	=17	=17	=17
2D]	0A	4A]	2f
.	.	4B	.
2C	.	1c	1e
1F	.	.	.
.	.	4B	2d
.	.	4A	.
=18	=18	=18	=18
2E	1G	2B	0e
2.C	.	2c	.
.	1c	1G	.
4D	.	.	.
4E	.	.	.
4C	.	.	.
=19	=19	=19	=19
2D	2B	0r	0r
2E	2.G	.	.
2C	.	.	.
.	4A	.	.
[2G	4B	.	.
.	4G	.	.
=20	=20	=20	=20
2G]	1A	2r	2r
2F	.	2A	1d
2G	1G	2B	.
2E	.	[2c	2c
=21	=21	=21	=21
1D	0r	2c]	1f
.	.	2B	.
[1C	.	2c	2e
.	.	[2e	[2c
=22	=22	=22	=22
1C]	0r	4e]	4c]
.	.	4f	4d
.	.	4g	4e
.	.	4e	4c
1r	.	2f	2d
.	.	[2g	2e
=23	=23	=23	=23
0r	2r	2g]	2c
.	2A	4f	1cc
.	.	4e	.
.	2F	1d	.
.	2G	.	2b
=24	=24	=24	=24
2r	2A	2c	2cc
1D	4F	2f	2a
.	4G	.	.
.	4A	2d	2f
.	4F	.	.
2C	[2c	[2e	2g
=25	=25	=25	=25
1F	2c]	4e]	2.a
.	.	8dL	.
.	.	8cJ	.
.	4B	2d	.
.	4A	.	8gL
.	.	.	8fJ
2E	2B	2.e	2g
2C	2c	.	[2a
.	.	4d	.
=26	=26	=26	=26
1E	1G	2B	4a]
.	.	.	4g
.	.	2c	1g
1D	1A	1d	.
.	.	.	2f#i
=27	=27	=27	=27
2r	1c	0e	1g
1C	.	.	.
.	2r	.	1c
2AA	[2c	.	.
=28	=28	=28	=28
2C	2c]	0r	0r
2D	2A	.	.
2E	1c	.	.
2F	.	.	.
=29	=29	=29	=29
2D	1B	0r	0r
2.E	.	.	.
.	1G	.	.
4C	.	.	.
[2G	.	.	.
=30	=30	=30	=30
2G]	1A	1r	0r
2F	.	.	.
1B-i	1G	2r	.
.	.	[2d	.
=31	=31	=31	=31
1A	2.F	2d]	0a
.	.	2c	.
.	4G	.	.
1D	2A	1f	.
.	2F	.	.
=32	=32	=32	=32
0r	1c	2e	1g
.	.	2.c	.
.	1A	.	1cc
.	.	4d	.
.	.	4e	.
.	.	4c	.
=33	=33	=33	=33
0r	2G	2d	2b
.	2c	2e	2.g
.	2B	2d	.
.	.	.	4a
.	2G	[2g	4b
.	.	.	4g
=34	=34	=34	=34
1r	1d	2g]	1a
.	.	2f#i	.
[1E	1G	2g	[1g
.	.	2c	.
=35	=35	=35	=35
2E]	0r	2B	1g]
2C	.	1c	.
1F	.	.	1a
.	.	4B	.
.	.	4A	.
=36	=36	=36	=36
2E	1r	2B	2g
2C	.	2c	2e
1D	[1A	4F	1f
.	.	4G	.
.	.	4A	.
.	.	4B	.
=37	=37	=37	=37
2AA	2A]	2c	2e
2E	2G	2.B	1g
2E	1c	.	.
.	.	4G	.
2F	.	2A	4f
.	.	.	4e
=38	=38	=38	=38
2G	2B	2B	2d
2E	2G	2c	1g
1D	1A	1d	.
.	.	.	2f#i
=39	=39	=39	=39
2GG	2.G	1B	1g
1G	.	.	.
.	4A	.	.
.	2B	1G	1r
4F	[2c	.	.
4E	.	.	.
=40	=40	=40	=40
2F	4c]	1r	1d
.	8BL	.	.
.	8AJ	.	.
2.G	2B	.	.
.	2E	1G	1g
4F	.	.	.
4E	4c	.	.
4D	4B	.	.
=41	=41	=41	=41
2C	4A	1c	2r
.	4G	.	.
2E	2.G	.	2g
1D	.	2r	2a
.	4F#i	.	.
.	4F#i	2d	2a
.	4E	.	.
=42	=42	=42	=42
1GG	1G	2d	1b
.	.	2e	.
1r	1D	1f	1a
=43	=43	=43	=43
1GG	1G	1d	1b
1C	2r	1e	2g
.	2G	.	[2cc
=44	=44	=44	=44
2r	2A	2c	4cc]
.	.	.	4b
2D	2A	1f	1a
2D	1B	.	.
2E	.	4e	2g#i
.	.	4d	.
=45	=45	=45	=45
1F	1A	2.c	1a
.	.	4d	.
2C	[1c	2e	1r
[2F	.	2A	.
=46	=46	=46	=46
2F]	1c]	0r	0r
2E	.	.	.
2F	1A	.	.
2D	.	.	.
=47	=47	=47	=47
2E	1c	0r	0r
2F	.	.	.
4G	2B	.	.
4F	.	.	.
4E	[2G	.	.
4D	.	.	.
=48	=48	=48	=48
2E	2G]	2r	0cc
2F	2A	1f	.
1C	1G	.	.
.	.	2e	.
=49	=49	=49	=49
2.D	1F	2f	1a
.	.	2d	.
4C	.	.	.
1AA	1A	2e	1cc
.	.	2f	.
=50	=50	=50	=50
0r	2G	4g	2b
.	.	4f	.
.	1c	4e	1g
.	.	4d	.
.	.	2e	.
.	2A	[2f	2a
=51	=51	=51	=51
1r	2B	2f]	1g
.	2c	2e	.
2r	2.F	1f	1f
[2D	.	.	.
.	4G	.	.
=52	=52	=52	=52
2D]	4A	2r	0r
.	4B	.	.
2C	1c	1e	.
1F	.	.	.
.	4B	2d	.
.	4A	.	.
=53	=53	=53	=53
2E	2B	1g	1r
2C	2c	.	.
1D	2A	2f	2r
.	2F	2d	[2a
=54	=54	=54	=54
1C	2.c	1e	2a]
.	.	.	2g
.	4B	.	.
1r	1A	2c	1cc
.	.	[2e	.
=55	=55	=55	=55
0r	1G	4e]	2b
.	.	4d	.
.	.	1g	2g
.	1r	.	1a
.	.	2f#i	.
=56	=56	=56	=56
1r	2r	1g	[0g
.	1c	.	.
2r	.	2.G	.
[2E	2B	.	.
.	.	4A	.
=57	=57	=57	=57
2E]	1e	2B	1g]
2C	.	2c	.
1F	2c	1A	2r
.	[2d	.	2d
=58	=58	=58	=58
2E	4d]	1G	1e
.	4c	.	.
2C	1c	.	.
1D	.	1r	1f
.	2B	.	.
=59	=59	=59	=59
2.C	2c	2r	1e
.	2.G	1e	.
4D	.	.	.
2E	.	.	2.g
.	4A	.	.
[2G	4B	2d	.
.	4c	.	4a
=60	=60	=60	=60
2G]	2d	1g	2b
2C	2e	.	2cc
2D	1d	2f	2a
[2G	.	2d	[2b
=61	=61	=61	=61
2G]	2B	1e	4b]
.	.	.	4a
2C	2c	.	1g
1D	1A	[1dl	.
.	.	.	2f#i
=	=	=	=
00GG	00G	00d]	00g
=||	=||	=||	=||
*M2/1	*M2/1	*M2/1	*M2/1
*met(C|)	*met(C|)	*met(C|)	*met(C|)
!!section: Secunda pars: Causa etiam
!!!OMD: Secunda pars: Causa etiam
0GG	0D	0B	1r
.	.	.	1d
=62	=62	=62	=62
1GG	0G	1B	1d
[1C	.	[1c	[1e
=63	=63	=63	=63
2C]	1.G	2c]	2e]
2C	.	2c	2e
1E	.	2B	1e
.	2G	[2c	.
=64	=64	=64	=64
1F	1A	4c]	2.c
.	.	4B	.
.	.	1A	.
.	.	.	4d
1E	1B	.	2e
.	.	2G	2b
=65	=65	=65	=65
2r	1A	2A	2cc
1F	.	2c	2.a
.	1c	2A	.
.	.	.	8gL
.	.	.	8fJ
2E	.	[2e	2g
=66	=66	=66	=66
1F	1A	4e]	1a
.	.	8dL	.
.	.	8cJ	.
.	.	2d	.
1C	2.c	1e	2r
.	.	.	[2cc
.	4B	.	.
=67	=67	=67	=67
2.F	2A	2r	2cc]
.	2.c	2f	2a
4G	.	.	.
1A	.	2e	1cc
.	4d	.	.
.	2e	2c	.
=68	=68	=68	=68
2.E	2.e	2.g	1.b
4F	8dL	4f	.
.	8cJ	.	.
2G	2B	2d	.
2C	[2c	2e	2g
=69	=69	=69	=69
1F	2c]	2A	1a
.	2F	1d	.
1E	1G	.	1g
.	.	2c#i	.
=70	=70	=70	=70
1D	2r	1d	1f
.	1A	.	.
[1E	.	2r	1r
.	2G	[2B	.
=71	=71	=71	=71
2E]	1c	2B]	0r
2F	.	2A	.
2G	2B	1d	.
[2F	[2A	.	.
=72	=72	=72	=72
2F]	4A]	2c	0r
.	4G	.	.
2G	1G	2B	.
1D	.	1A	.
.	2F#i	.	.
=73	=73	=73	=73
1GG	2.G	2G	1r
.	.	1d	.
.	4F	.	.
1AA	1E	.	2r
.	.	2c	[2a
=74	=74	=74	=74
0r	1D	1f	2a]
.	.	.	2a
.	1r	2e	2g
.	.	[2d	[2f
=75	=75	=75	=75
2r	0r	4d]	2f]
.	.	4c	.
2A	.	1c	2e
2F	.	.	1d
2G	.	2B	.
=76	=76	=76	=76
2A	2r	2.c	2c
2F	1A	.	1cc
.	.	4d	.
1E	.	1e	.
.	2G	.	2b
=77	=77	=77	=77
2.C	1c	2r	2a
.	.	2.e	1g
4D	.	.	.
2E	2B	.	.
.	.	4d	.
2F	[2A	2c	2f
=78	=78	=78	=78
2G	4A]	2B	1e
.	4G	.	.
2C	1G	2c	.
1D	.	1A	[1d
.	2F#i	.	.
=79	=79	=79	=79
0GG	1G	1B	1d]
.	1d	1B	2r
.	.	.	[2g
=80	=80	=80	=80
1C	1e	1G	2g]
.	.	.	1cc
1G	1d	1r	.
.	.	.	2b
=81	=81	=81	=81
2E	2c	2r	1cc
1F	1A	1c	.
.	.	.	1a
4E	4G	[2f	.
4D	4F	.	.
=82	=82	=82	=82
1C	1G	2f]	1cc
.	.	2e	.
2r	1F	2f	1cc
[2F	.	[2c	.
=83	=83	=83	=83
2F]	1r	2c]	1g
2E	.	1c	.
2F	1A	.	1a
2F	.	[2f	.
=84	=84	=84	=84
1C	1c	2f]	2g
.	.	2e	2g
1F	1c	2.f	2a
.	.	.	[2cc
.	.	4e	.
=85	=85	=85	=85
1r	1G	1d	2cc]
.	.	.	2b
1F	1A	1c	1cc
=86	=86	=86	=86
2E	2G	2.c	2r
1F	2F	.	1a
.	.	4B	.
.	2A	2c	.
2C	[2c	2e	2g
=87	=87	=87	=87
1D	4c]	1d	1f
.	4B	.	.
.	4B	.	.
.	8AL	.	.
.	8BJ	.	.
2C	[1c	2G	2.e
2C	.	[2c	.
.	.	.	4f
=88	=88	=88	=88
2E	0c]	4c]	2g
.	.	4B	.
2.F	.	1A	2.a
8EL	.	.	4b
8DJ	.	.	.
2E	.	2G	[2cc
=89	=89	=89	=89
2F	1d	2A	4cc]
.	.	.	8bL
.	.	.	8aJ
2G	.	2d	2b
2E	[1c	2e	2g
2F	.	2A	[2a
=90	=90	=90	=90
2C	2c]	1c	4a]
.	.	.	4g
2E	2G	.	1g
1D	1A	1d	.
.	.	.	2f#i
=91	=91	=91	=91
2r	[0G	1r	1g
1C	.	.	.
.	.	1d	2r
2BB	.	.	2g
=92	=92	=92	=92
1C	0G]	1e	2g
.	.	.	2.cc
1GG	.	1d	.
.	.	.	4b
.	.	.	4b
.	.	.	8aL
.	.	.	8bJ
=93	=93	=93	=93
0r	0r	1c	2cc
.	.	.	2g
.	.	1A	2a
.	.	.	[2cc
=94	=94	=94	=94
0r	1e	1c	2cc]
.	.	.	4b
.	.	.	4a
.	1e	1c	2g
.	.	.	[2a
=95	=95	=95	=95
1r	2.d	1G	4a]
.	.	.	4g
.	.	.	1g
.	8cL	.	.
.	8BJ	.	.
2r	2c	1A	.
2D	[2d	.	2f#i
=96	=96	=96	=96
1E	4d]	1G	1g
.	4c	.	.
.	1c	.	.
1D	.	2r	1r
.	2B	2d	.
=97	=97	=97	=97
1C	2c	2e	0r
.	2G	1c	.
1AA	2A	.	.
.	[2c	4B	.
.	.	4A	.
=98	=98	=98	=98
1C	2c]	2G	0r
.	4B	2.e	.
.	4A	.	.
1C	2G	.	.
.	.	4d	.
.	[2A	[2c	.
=99	=99	=99	=99
1GG	4A]	4c]	0r
.	4G	4B	.
.	1G	4B	.
.	.	8AL	.
.	.	8BJ	.
1AA	.	1c	.
.	2F#i	.	.
=100	=100	=100	=100
1GG	1G	2r	0r
.	.	2B	.
1C	2r	2c	.
.	2c	[2e	.
=101	=101	=101	=101
1E	2B	2e]	0r
.	1e	4d	.
.	.	4c	.
1G	.	2B	.
.	4d	2e	.
.	4c	.	.
=102	=102	=102	=102
1G	2B	2d	0r
.	2d	2g	.
2A	2c	2f	.
[2G	[2B	[2e	.
=103	=103	=103	=103
2G]	2B]	4e]	1r
.	.	4d	.
2F	2A	1d	.
1E	1G	.	2r
.	.	2c#i	2e
=104	=104	=104	=104
2D	2A	1d	2f
2D	2F	.	1a
2F	1A	1c	.
[2A	.	.	4g
.	.	.	4f
=105	=105	=105	=105
2A]	1c	2c	2e
4G	.	2A	2a
4F	.	.	.
2E	1c	2.e	2g
2A	.	.	2cc
.	.	4f	.
=106	=106	=106	=106
2G	2d	2g	2b
2A	1c	2e	2.a
2F	.	2f	.
.	.	.	4g
2G	2B	2d	[2g
=107	=107	=107	=107
1D	1A	1d	2g]
.	.	.	2f#i
1GG	[1G	2B	1g
.	.	[2B	.
=108	=108	=108	=108
2r	1G]	2B]	2r
2C	.	2G	2e
1C	2r	2G	1e
.	2G	[2c	.
=109	=109	=109	=109
2GG	1G	2c]	1d
1G	.	2B	.
.	1D	2A	1a
2F	.	[2d	.
=110	=110	=110	=110
2G	1G	2d]	2b
2E	.	2c	1g
1D	1A	1d	.
.	.	.	2f#i
=111	=111	=111	=111
1C	0c	1e	1g
2r	.	2r	2r
2C	.	2e	2g
=112	=112	=112	=112
1C	[0Gl	1e	1cc
2GG	.	2d	2b
[2C	.	[2e	[2cc
=113	=113	=113	=113
2C]	0G_	2e]	2cc]
2C	.	2e	2g
1C	.	1e	1cc
=114	=114	=114	=114
00GGl	00G]	00dl	00bl
==	==	==	==
*-	*-	*-	*-
!!!system-decoration: [*]
!!!RDF**kern: i = editorial accidental
!!!RDF**kern: l = terminal long
!!!ENC: Benjamin Ory
!!!END: 2021/3/12
!!!EED: Benjamin Ory
!!!EEV: 2021/04/30
!!!YEC: Copyright 2021 Benjamin Ory, All Rights Reserved
!!!ONB: Translated from MusicXML on 2021/04/30
